X:1
T:Title
%%score { ( 1 4 ) | ( 2 3 ) }
L:1/8
M:6/8
K:Bb
V:1 treble nm="Grand Piano"
V:4 treble 
V:2 bass 
V:3 bass 
V:1
 z3 z2[Q:1/4=81] [DF] | [DF]3 [_D=E][=DF][_EG] | [DF]3 [DB]2 [FA] | GGG [GB]2 [FA]/[EG]/ | %4
[M:5/8] [EG]3 [DF]2 |[M:1/8] [DF]/F/ |[M:3/4] [A,CF]3 [C=EG]3 | F2- [Fc] [DFB]2 [DG] | z2 z =E3 | %9
 F4- FF | [DF]3 [DF] [DB][Fd] | [Fd]2 [Ec] [DB]2 [B,FA] | [B,FA]3 [B,EG]2 [B,EG] | %13
 [B,EG]3 [B,DF]2 [B,DF] | [A,CF]3 [CEF]3 |[M:7/8] [B,DF]-[B,DF]-[B,DF]- [B,DF]3 [B,FB] | %16
[M:3/4] [DFB]3 .[CFA]3 |[M:5/8] [B,DB]-[B,DB]- [B,DB]3 |] %18
V:2
 z3 z2 [B,,B,] | [B,,B,]3 [B,,B,][B,,B,][B,,B,] | [B,,B,]3 [B,,F,]2 [D,B,] | %3
 [E,B,E][E,B,E][E,B,E] [E,B,]2 [E,B,]/[E,B,]/ |[M:5/8] [B,,B,]3 [B,,B,]2 |[M:1/8] z/ _D/ | %6
[M:3/4] C,3 C,3 | z2 .A,2 z B, | [C,A,C]3 G, z2 | [F,A,C]4- [F,A,C][F,A,E] | %10
 [B,,B,]3 [B,,B,] [B,,B,][B,,B,] | [B,,B,]2 [B,,F,] [B,,F,]2 C, | E,3 E,2 E, | B,,3 B,,2 B,, | %14
 F,3 F,3 |[M:7/8] B,,-B,,-B,,- B,,3 D, |[M:3/4] F,4 z E |[M:5/8] B,,-B,,- B,,3 |] %18
V:3
 x6 | x6 | x6 | x6 |[M:5/8] x5 |[M:1/8] [B,,B,] |[M:3/4] x6 | F,3 B,,3 | z2 z [C,C]3 | x6 | x6 | %11
 x6 | x6 | x6 | x6 |[M:7/8] x7 |[M:3/4] z2 z F,3 |[M:5/8] x5 |] %18
V:4
 x6 | x6 | x6 | x6 |[M:5/8] x5 |[M:1/8] x |[M:3/4] x6 | [CA]2 z2 z2 | F4 A,B, | x6 | x6 | x6 | x6 | %13
 x6 | x6 |[M:7/8] x7 |[M:3/4] x6 |[M:5/8] x5 |] %18

